assets/img/emoji/heart.svg

<svg viewBox="0 0 128 128" xmlns="http://www.w3.org/2000/svg">
  <defs/>
  <path d="M93.99,8.97 C72.08,8.97 64.03,31.36 64.03,31.36 C64.03,31.36 56.09,8.97 34.03,8.97 C17.45,8.97 -1.45,22.11 5.53,51.98 C12.51,81.85 64.09,119.06 64.09,119.06 C64.09,119.06 115.48,81.85 122.47,51.98 C129.45,22.11 111.91,8.97 93.99,8.97 Z" fill="#F44336"/>
  <path d="M30.65,11.2 C47.85,11.2 56.39,29.69 59.15,37.18 C59.54,38.25 61.03,38.28 61.48,37.24 L64,31.35 C60.45,20.01 50.69,8.97 34.03,8.97 C27.13,8.97 19.84,11.25 14.17,16.06 C19.18,12.77 25.05,11.2 30.65,11.2 Z" fill="#CC3333"/>
  <path d="M93.99,8.97 C88.7,8.97 83.88,10.12 80.12,12.44 C82.76,11.42 86.03,11.2 89.27,11.2 C105.48,11.2 119.99,23.49 113.44,51.9 C107.82,76.29 74.98,105.88 64.95,117.17 C64.31,117.89 64.09,119.05 64.09,119.05 C64.09,119.05 115.48,81.84 122.47,51.97 C129.45,22.11 111.94,8.97 93.99,8.97 Z" fill="#CC3333"/>
  <path d="M17.04,24.82 C20.79,20.14 27.49,16.27 33.17,20.73 C36.24,23.14 34.9,28.08 32.15,30.16 C28.15,33.2 24.67,35.03 22.23,39.79 C20.77,42.65 19.89,45.78 19.44,48.97 C19.26,50.23 17.61,50.54 16.99,49.43 C12.77,41.95 11.57,31.65 17.04,24.82 Z" fill="#FF8A80"/>
  <path d="M77.16,34.66 C75.4,34.66 74.16,32.96 74.8,31.32 C75.99,28.3 77.53,25.38 79.38,22.78 C82.12,18.94 87.33,16.7 90.63,19.03 C94.01,21.41 93.57,26.17 91.2,28.47 C86.11,33.4 79.69,34.66 77.16,34.66 Z" fill="#FF8A80"/>
</svg>

<svg xmlns="http://www.w3.org/2000/svg" viewBox="0 0 128 128"><path fill="#F44336" d="M94 9C72 9 64 31.4 64 31.4S56 9 34 9C17.4 9-1.5 22 5.5 52c7 29.8 58.6 67 58.6 67s51.4-37.2 58.4-67c7-30-10.6-43-28.5-43Z"/><path fill="#C33" d="M30.6 11.2c17.3 0 25.8 18.5 28.5 26 .4 1 2 1 2.4 0l2.5-5.9A30.6 30.6 0 0 0 34 9c-6.9 0-14.2 2.3-19.8 7 5-3.2 10.9-4.8 16.4-4.8ZM94 9c-5.3 0-10.1 1-14 3.4 2.7-1 6-1.2 9.2-1.2 16.2 0 30.7 12.3 24.1 40.7-5.6 24.4-38.4 54-48.5 65.3-.6.7-.8 1.8-.8 1.8s51.4-37.2 58.4-67C129.5 22 111.9 9 94 9Z"/><path fill="#FF8A80" d="M17 24.8c3.8-4.7 10.5-8.5 16.2-4 3 2.3 1.7 7.3-1 9.4-4 3-7.5 4.8-10 9.6a29 29 0 0 0-2.8 9.2 1.3 1.3 0 0 1-2.4.4c-4.2-7.4-5.4-17.8 0-24.6Zm60.2 9.9c-1.8 0-3-1.7-2.4-3.4 1.2-3 2.7-6 4.6-8.5 2.7-3.9 8-6.1 11.2-3.8 3.4 2.4 3 7.2.6 9.5-5 4.9-11.5 6.2-14 6.2Z"/></svg>
